flaticon/files-and-folders/files-13.svg

<svg xmlns="http://www.w3.org/2000/svg" width="32" height="32" viewBox="0 0 24 24">
    <path d="M20.792969 5.117188C20.769531 5 20.707031 4.90625 20.609375 4.851562L15.949219.191406C15.894531.09375 15.800781.0273438 15.683594.0078125 15.648438 0 15.613281 0 15.578125 0L15.199219 0C14.960938 0 14.800781.160156 14.800781.402344 14.800781.640625 14.960938.800781 15.199219.800781L15.199219 4.402344C15.199219 4.542969 15.222656 4.679688 15.265625 4.804688 15.269531 4.859375 15.289062 4.910156 15.320312 4.960938 15.4375 5.203125 15.597656 5.359375 15.839844 5.480469 15.882812 5.503906 15.914062 5.511719 15.945312 5.515625 16.082031 5.570312 16.238281 5.601562 16.398438 5.601562L20 5.601562C20 5.839844 20.160156 6 20.398438 6 20.636719 6 20.796875 5.839844 20.796875 5.601562L20.796875 5.222656C20.800781 5.1875 20.800781 5.152344 20.792969 5.117188zM19 4.800781L16.398438 4.800781C16.160156 4.800781 16 4.640625 16 4.402344L16 1.363281 19.4375 4.800781zM11.359375 0L10.597656 0C10.359375 0 10.199219.160156 10.199219.402344 10.199219.640625 10.359375.800781 10.597656.800781L11.359375.800781C11.558594.800781 11.757812.640625 11.757812.402344 11.757812.160156 11.597656 0 11.359375 0zM13.640625 0L12.878906 0C12.640625 0 12.480469.160156 12.480469.402344 12.480469.640625 12.640625.800781 12.878906.800781L13.640625.800781C13.878906.800781 14.039062.640625 14.039062.402344 14.039062.160156 13.878906 0 13.640625 0zM3.601562 3.402344C3.839844 3.402344 4 3.242188 4 3L4 2.242188C4 2 3.839844 1.839844 3.601562 1.839844 3.359375 1.839844 3.199219 2 3.199219 2.242188L3.199219 3C3.199219 3.242188 3.359375 3.402344 3.601562 3.402344zM3.601562 8.042969C3.839844 8.042969 4 7.839844 4 7.640625L4 6.882812C4 6.640625 3.839844 6.480469 3.601562 6.480469 3.359375 6.480469 3.199219 6.640625 3.199219 6.882812L3.199219 7.640625C3.199219 7.882812 3.359375 8.042969 3.601562 8.042969zM6.71875 0L5.960938 0C5.71875 0 5.558594.160156 5.558594.402344 5.558594.640625 5.71875.800781 5.960938.800781L6.71875.800781C6.960938.800781 7.121094.640625 7.121094.402344 7.121094.160156 6.960938 0 6.71875 0zM4.398438 0C4 0 3.640625.203125 3.441406.523438 3.320312.722656 3.359375.960938 3.519531 1.082031 3.601562 1.121094 3.679688 1.121094 3.761719 1.121094 3.878906 1.121094 4 1.082031 4.078125.960938 4.160156.882812 4.28125.800781 4.398438.800781 4.640625.800781 4.800781.640625 4.800781.402344 4.800781.160156 4.640625 0 4.398438 0zM3.601562 21.921875C3.839844 21.921875 4 21.71875 4 21.519531L4 20.761719C4 20.519531 3.839844 20.359375 3.601562 20.359375 3.359375 20.359375 3.199219 20.519531 3.199219 20.761719L3.199219 21.519531C3.199219 21.761719 3.359375 21.921875 3.601562 21.921875zM6.441406 23.199219L5.679688 23.199219C5.441406 23.199219 5.28125 23.359375 5.28125 23.601562 5.28125 23.839844 5.441406 24 5.679688 24L6.480469 24C6.679688 24 6.839844 23.839844 6.839844 23.601562 6.839844 23.359375 6.679688 23.199219 6.441406 23.199219zM4.320312 23.238281C4.160156 23.199219 4.078125 23.078125 4.039062 22.960938 3.960938 22.71875 3.761719 22.640625 3.519531 22.679688 3.28125 22.71875 3.160156 22.960938 3.238281 23.160156 3.359375 23.558594 3.679688 23.839844 4.039062 23.960938 4.078125 23.960938 4.121094 23.960938 4.160156 23.960938 4.320312 23.960938 4.480469 23.839844 4.601562 23.761719 4.640625 23.519531 4.519531 23.320312 4.320312 23.238281zM3.601562 12.679688C3.839844 12.679688 4 12.480469 4 12.28125L4 11.519531C4 11.28125 3.839844 11.121094 3.601562 11.121094 3.359375 11.121094 3.199219 11.28125 3.199219 11.519531L3.199219 12.28125C3.199219 12.519531 3.359375 12.679688 3.601562 12.679688zM3.601562 14.960938C3.839844 14.960938 4 14.800781 4 14.5625L4 13.800781C4 13.5625 3.839844 13.402344 3.601562 13.402344 3.359375 13.402344 3.199219 13.5625 3.199219 13.800781L3.199219 14.5625C3.199219 14.800781 3.359375 14.960938 3.601562 14.960938zM3.601562 10.359375C3.839844 10.359375 4 10.160156 4 9.960938L4 9.199219C4 8.960938 3.839844 8.800781 3.601562 8.800781 3.359375 8.800781 3.199219 8.960938 3.199219 9.199219L3.199219 9.960938C3.199219 10.199219 3.359375 10.359375 3.601562 10.359375zM3.601562 19.601562C3.839844 19.601562 4 19.398438 4 19.199219L4 18.441406C4 18.199219 3.839844 18.039062 3.601562 18.039062 3.359375 18.039062 3.199219 18.199219 3.199219 18.441406L3.199219 19.199219C3.199219 19.441406 3.359375 19.601562 3.601562 19.601562zM3.601562 5.722656C3.839844 5.722656 4 5.5625 4 5.320312L4 4.5625C4 4.320312 3.839844 4.160156 3.601562 4.160156 3.359375 4.160156 3.199219 4.320312 3.199219 4.5625L3.199219 5.320312C3.199219 5.5625 3.359375 5.722656 3.601562 5.722656zM3.601562 17.28125C3.839844 17.28125 4 17.121094 4 16.878906L4 16.121094C4 15.878906 3.839844 15.71875 3.601562 15.71875 3.359375 15.71875 3.199219 15.878906 3.199219 16.121094L3.199219 16.878906C3.199219 17.121094 3.359375 17.28125 3.601562 17.28125zM18.039062 23.199219L17.277344 23.199219C17.039062 23.199219 16.878906 23.359375 16.878906 23.601562 16.878906 23.839844 17.039062 24 17.277344 24L18.039062 24C18.238281 24 18.4375 23.839844 18.4375 23.601562 18.4375 23.359375 18.277344 23.199219 18.039062 23.199219zM20.398438 11.402344C20.160156 11.402344 20 11.5625 20 11.800781L20 12.5625C20 12.800781 20.160156 12.960938 20.398438 12.960938 20.636719 12.960938 20.796875 12.761719 20.796875 12.5625L20.796875 11.800781C20.796875 11.5625 20.636719 11.402344 20.398438 11.402344zM20.398438 13.679688C20.160156 13.679688 20 13.839844 20 14.082031L20 14.839844C20 15.082031 20.160156 15.242188 20.398438 15.242188 20.636719 15.242188 20.796875 15.082031 20.796875 14.839844L20.796875 14.082031C20.796875 13.839844 20.636719 13.679688 20.398438 13.679688zM20.398438 16C20.160156 16 20 16.160156 20 16.402344L20 17.160156C20 17.402344 20.160156 17.558594 20.398438 17.558594 20.636719 17.558594 20.796875 17.402344 20.796875 17.160156L20.796875 16.402344C20.796875 16.160156 20.636719 16 20.398438 16zM20.398438 6.761719C20.160156 6.761719 20 6.921875 20 7.160156L20 7.921875C20 8.160156 20.160156 8.320312 20.398438 8.320312 20.636719 8.320312 20.796875 8.160156 20.796875 7.921875L20.796875 7.160156C20.796875 6.921875 20.636719 6.761719 20.398438 6.761719zM20.398438 18.320312C20.160156 18.320312 20 18.480469 20 18.71875L20 19.480469C20 19.71875 20.160156 19.878906 20.398438 19.878906 20.636719 19.878906 20.796875 19.679688 20.796875 19.480469L20.796875 18.71875C20.796875 18.480469 20.636719 18.320312 20.398438 18.320312zM20.398438 9.082031C20.160156 9.082031 20 9.242188 20 9.480469L20 10.242188C20 10.480469 20.160156 10.640625 20.398438 10.640625 20.636719 10.640625 20.796875 10.441406 20.796875 10.242188L20.796875 9.480469C20.796875 9.242188 20.636719 9.082031 20.398438 9.082031zM20.480469 22.960938C20.320312 22.839844 20.039062 22.878906 19.917969 23.039062 19.839844 23.160156 19.71875 23.199219 19.597656 23.199219 19.359375 23.199219 19.199219 23.359375 19.199219 23.601562 19.199219 23.839844 19.359375 24 19.597656 24 19.957031 24 20.320312 23.839844 20.558594 23.519531 20.679688 23.359375 20.636719 23.078125 20.480469 22.960938zM11.078125 23.199219L10.320312 23.199219C10.078125 23.199219 9.917969 23.359375 9.917969 23.601562 9.917969 23.839844 10.078125 24 10.320312 24L11.078125 24C11.320312 24 11.480469 23.839844 11.480469 23.601562 11.480469 23.359375 11.320312 23.199219 11.078125 23.199219zM13.398438 23.199219L12.640625 23.199219C12.398438 23.199219 12.238281 23.359375 12.238281 23.601562 12.238281 23.839844 12.398438 24 12.640625 24L13.398438 24C13.597656 24 13.800781 23.839844 13.800781 23.601562 13.800781 23.359375 13.640625 23.199219 13.398438 23.199219zM20.398438 20.640625C20.160156 20.640625 20 20.800781 20 21.039062L20 21.800781C20 22.039062 20.160156 22.199219 20.398438 22.199219 20.636719 22.199219 20.796875 22 20.796875 21.800781L20.796875 21.039062C20.796875 20.800781 20.636719 20.640625 20.398438 20.640625zM9.039062 0L8.28125 0C8.039062 0 7.878906.160156 7.878906.402344 7.878906.640625 8.039062.800781 8.28125.800781L9.039062.800781C9.238281.800781 9.4375.640625 9.4375.402344 9.4375.160156 9.28125 0 9.039062 0zM15.71875 23.199219L14.957031 23.199219C14.71875 23.199219 14.558594 23.359375 14.558594 23.601562 14.558594 23.839844 14.71875 24 14.957031 24L15.71875 24C15.917969 24 16.117188 23.839844 16.117188 23.601562 16.117188 23.359375 15.957031 23.199219 15.71875 23.199219zM8.757812 23.199219L8 23.199219C7.757812 23.199219 7.597656 23.359375 7.597656 23.601562 7.597656 23.839844 7.757812 24 8 24L8.757812 24C9 24 9.160156 23.839844 9.160156 23.601562 9.160156 23.359375 9 23.199219 8.757812 23.199219zM8.757812 23.199219"/>
</svg>

<svg xmlns="http://www.w3.org/2000/svg" width="32" height="32" viewBox="0 0 24 24">
    <path d="M20.793 5.117a.378.378 0 0 0-.184-.265L15.95.192a.367.367 0 0 0-.265-.184C15.648 0 15.614 0 15.578 0H15.2c-.238 0-.398.16-.398.402 0 .239.16.399.398.399v3.601c0 .141.024.278.067.403a.342.342 0 0 0 .054.156c.117.242.278.398.52.52a.277.277 0 0 0 .105.035c.137.054.293.086.453.086H20c0 .238.16.398.398.398.239 0 .399-.16.399-.398v-.38a.32.32 0 0 0-.004-.105zM19 4.801h-2.602c-.238 0-.398-.16-.398-.399V1.363l3.438 3.438zm0 0M11.36 0h-.762c-.239 0-.399.16-.399.402 0 .239.16.399.399.399h.761a.4.4 0 0 0 .399-.399c0-.242-.16-.402-.399-.402zm0 0M13.64 0h-.761c-.238 0-.399.16-.399.402 0 .239.16.399.399.399h.762c.238 0 .398-.16.398-.399 0-.242-.16-.402-.398-.402zm0 0M3.602 3.402C3.84 3.402 4 3.242 4 3v-.758C4 2 3.84 1.84 3.602 1.84c-.243 0-.403.16-.403.402V3c0 .242.16.402.403.402zm0 0M3.602 8.043A.403.403 0 0 0 4 7.641v-.758c0-.242-.16-.403-.398-.403-.243 0-.403.16-.403.403v.758c0 .242.16.402.403.402zm0 0M6.719 0H5.96c-.242 0-.402.16-.402.402 0 .239.16.399.402.399h.758C6.96.8 7.12.64 7.12.402 7.121.16 6.961 0 6.72 0zm0 0M4.398 0C4 0 3.641.203 3.441.523c-.12.2-.082.438.079.559.082.04.16.04.242.04.117 0 .238-.04.316-.161.082-.078.203-.16.32-.16.243 0 .403-.16.403-.399C4.8.16 4.64 0 4.398 0zm0 0M3.602 21.922A.403.403 0 0 0 4 21.52v-.758c0-.242-.16-.403-.398-.403-.243 0-.403.16-.403.403v.758c0 .242.16.402.403.402zm0 0M6.441 23.2H5.68c-.239 0-.399.16-.399.402 0 .238.16.398.399.398h.8c.2 0 .36-.16.36-.398 0-.243-.16-.403-.399-.403zm0 0M4.32 23.238a.395.395 0 0 1-.28-.277c-.08-.242-.278-.32-.52-.281a.358.358 0 0 0-.282.48c.121.399.442.68.801.8h.121c.16 0 .32-.12.442-.198a.465.465 0 0 0-.282-.524zm0 0M3.602 12.68A.4.4 0 0 0 4 12.28v-.761c0-.239-.16-.399-.398-.399-.243 0-.403.16-.403.399v.761c0 .239.16.399.403.399zm0 0M3.602 14.96c.238 0 .398-.16.398-.398v-.761c0-.239-.16-.399-.398-.399-.243 0-.403.16-.403.399v.761c0 .239.16.399.403.399zm0 0M3.602 10.36A.4.4 0 0 0 4 9.96V9.2c0-.24-.16-.4-.398-.4-.243 0-.403.16-.403.4v.76c0 .24.16.4.403.4zm0 0M3.602 19.602A.403.403 0 0 0 4 19.199v-.758c0-.242-.16-.402-.398-.402-.243 0-.403.16-.403.402v.758c0 .242.16.403.403.403zm0 0M3.602 5.723c.238 0 .398-.16.398-.403v-.758c0-.242-.16-.402-.398-.402-.243 0-.403.16-.403.402v.758c0 .242.16.403.403.403zm0 0M3.602 17.281c.238 0 .398-.16.398-.402v-.758c0-.242-.16-.402-.398-.402-.243 0-.403.16-.403.402v.758c0 .242.16.402.403.402zm0 0M18.04 23.2h-.763c-.238 0-.398.16-.398.402 0 .238.16.398.398.398h.762a.4.4 0 0 0 .398-.398c0-.243-.16-.403-.398-.403zm0 0M20.398 11.402c-.238 0-.398.16-.398.399v.761c0 .239.16.399.398.399a.4.4 0 0 0 .399-.399v-.761c0-.239-.16-.399-.399-.399zm0 0M20.398 13.68c-.238 0-.398.16-.398.402v.758c0 .242.16.402.398.402.239 0 .399-.16.399-.402v-.758c0-.242-.16-.402-.399-.402zm0 0M20.398 16c-.238 0-.398.16-.398.402v.758c0 .242.16.399.398.399.239 0 .399-.157.399-.399v-.758c0-.242-.16-.402-.399-.402zm0 0M20.398 6.762c-.238 0-.398.16-.398.398v.762c0 .238.16.398.398.398.239 0 .399-.16.399-.398V7.16c0-.238-.16-.398-.399-.398zm0 0M20.398 18.32c-.238 0-.398.16-.398.399v.761c0 .239.16.399.398.399a.4.4 0 0 0 .399-.399v-.761c0-.239-.16-.399-.399-.399zm0 0M20.398 9.082c-.238 0-.398.16-.398.398v.762c0 .238.16.399.398.399a.4.4 0 0 0 .399-.399V9.48c0-.238-.16-.398-.399-.398zm0 0M20.48 22.96a.432.432 0 0 0-.562.08c-.078.12-.2.16-.32.16-.239 0-.399.16-.399.402 0 .238.16.398.399.398.359 0 .722-.16.96-.48.122-.16.079-.442-.078-.56zm0 0M11.078 23.2h-.758c-.242 0-.402.16-.402.402 0 .238.16.398.402.398h.758c.242 0 .402-.16.402-.398 0-.243-.16-.403-.402-.403zm0 0M13.398 23.2h-.757c-.243 0-.403.16-.403.402 0 .238.16.398.403.398h.757c.2 0 .403-.16.403-.398 0-.243-.16-.403-.403-.403zm0 0M20.398 20.64c-.238 0-.398.16-.398.4v.76c0 .24.16.4.398.4a.4.4 0 0 0 .399-.4v-.76c0-.24-.16-.4-.399-.4zm0 0M9.04 0H8.28C8.04 0 7.88.16 7.88.402c0 .239.16.399.402.399h.758a.4.4 0 0 0 .399-.399C9.438.16 9.28 0 9.038 0zm0 0M15.719 23.2h-.762c-.238 0-.398.16-.398.402 0 .238.16.398.398.398h.762a.4.4 0 0 0 .398-.398c0-.243-.16-.403-.398-.403zm0 0M8.758 23.2H8c-.242 0-.402.16-.402.402 0 .238.16.398.402.398h.758c.242 0 .402-.16.402-.398 0-.243-.16-.403-.402-.403zm0 0"/>
</svg>
